X:1
T:Title
%%score { ( 1 3 ) | ( 2 4 ) }
L:1/8
M:3/4
K:F
V:1 treble nm="Grand Piano"
V:3 treble 
V:2 bass 
V:4 bass 
V:1
 z2 z[Q:1/4=100] A _A=A | B3 A [B,EG][CEA] | [A,F]3 [A,F] [B,FG][CFA] | [FB]2 z2 z2 | A3 A AB | %5
 G3 G [EG][EA] | F4 F2 | F3 F GF | E3 E E[B,EG] | [EGc]3 [DGB] [CFA]G | F4 A2 | d3 c [EB][FA] | %12
 B3 G G[FG] | [Ec]3 [EB] [FA]G | A4 [Fd]2 | [Fc]3 [FA] [EB][EG] |[M:3/8] F3 |[M:4/4] cd .c2 CCCC | %18
 cd .c2 CD=B,C | cd .c2 EDCE | z2 z A- A4 | z2 z f- f4 | z2 z d- d4 | z2 z c- c4 | %24
[M:11/16] z/ z/ z/ z/ z F/-F-<F-[Q:1/4=99][Q:1/4=97][Q:1/4=96][Q:1/4=94][Q:1/4=93][Q:1/4=91][Q:1/4=90][Q:1/4=88][Q:1/4=87][Q:1/4=85] | %25
 F/-F/-F-<F z/ z/ z/ z[Q:1/4=84][Q:1/4=82][Q:1/4=81][Q:1/4=79][Q:1/4=78][Q:1/4=76] |] %26
V:2
 z2 z [F,CF] [F,=B,F][F,CF] | [F,DF]3 [F,CF] C,C, | F,3 F, F,F, | z2 F2 B,,2 | %4
 [F,CF]3 [F,CF] [F,CF][F,DF] | [G,B,E]3 [E,B,C] [C,B,][C,C] | [F,A,]4 [F,A,]2 | %7
 [G,=B,D]3 [G,B,D] [G,B,D][G,B,D] | [C,C]3 [C,B,C] [C,G,C]C, | C,3 C, C,[C,B,C] | %10
 [F,A,C]4[K:treble] [F,CF]2 | [B,F]3[K:bass] [F,A,F] [C,G,][D,F,] | [G,D]3 [E,B,E] [E,B,E][D,B,] | %13
 [C,B,]3 [C,G,] [C,F,][C,E,C] | [F,C]4 [B,,F,]2 | [C,A,]3 [C,C] [C,C][C,B,] |[M:3/8] [F,A,]3 | %17
[M:4/4] z4 [C,B,][C,G,][C,A,][C,B,] | z4 [F,A,][F,B,][F,_A,][F,=A,] | z4 [C,B,][E,B,][G,B,][C,B,] | %20
 z4 [F,C][F,D][F,^C][F,=C] | z4 [F,A,][F,B,][F,=B,][F,C] | z4 [B,,B,][D,B,][F,B,]B, | %23
 z4 [C,F,][C,B,][C,A,][C,G,] |[M:11/16] z/ z/ z/ z/ z/ z/ z [F,A,][F,B,]/- | %25
 [F,B,]/[F,_A,][F,=A,]3/2 z/ z/ z/ z |] %26
V:3
 x6 | x6 | x6 | D4 [^CFG]2 | x6 | x6 | x6 | x6 | x6 | x6 | x6 | x6 | x6 | x6 | x6 | x6 | %16
[M:3/8] x3 |[M:4/4] z2 z E- E4 | z2 z F- F4 | z2 z G- G4 | cd .c2 FFFF | cd .c2 FG_A=A | %22
 cB .A2 FFFF | de .f2 AGFE |[M:11/16] cBG z CD/- | D/=B,C3/2 z/ z/ z/ z |] %26
V:4
 x6 | x6 | x6 | B,,4 z2 | x6 | x6 | x6 | x6 | x6 | x6 | x4[K:treble] x2 | x3[K:bass] x3 | x6 | x6 | %14
 x6 | x6 |[M:3/8] x3 |[M:4/4] x8 | x8 | x8 | x8 | x8 | x8 | x8 |[M:11/16] x11/2 | x11/2 |] %26

